brandFactory_export/1.Light/Teatro _1Light.svg

<?xml version="1.0" encoding="UTF-8"?>
<svg width="24px" height="24px" viewBox="0 0 24 24" version="1.1" xmlns="http://www.w3.org/2000/svg" xmlns:xlink="http://www.w3.org/1999/xlink">
    <title>1.Light/Teatro _1Light</title>
    <g id="Symbols" stroke="none" stroke-width="1" fill="none" fill-rule="evenodd">
        <g id="1.Light/Teatro-_1Light" fill="#5CB615" fill-rule="nonzero">
            <path d="M10.6722689,13.7159664 C10.7361345,13.605042 10.7798319,13.4941176 10.8168067,13.3865546 C9.86890756,14.0117647 8.19159664,14.8319328 5.76134454,14.7445378 C6.28571429,15.1411765 7.18991597,15.4571429 8.6487395,15.0504202 C9.65714286,14.7680672 10.3394958,14.3176471 10.6722689,13.7159664 Z M11.4655462,11.8268908 C11.6403361,11.8705882 11.7815126,12.005042 11.8319328,12.1764706 C11.8453782,12.2168067 12.1176471,13.1915966 11.5529412,14.2067227 C11.0823529,15.0537815 10.194958,15.6655462 8.91764706,16.0218487 C8.3394958,16.1831933 7.82521008,16.2537815 7.36806723,16.2537815 C4.96134454,16.2537815 4.18487395,14.3579832 4.17478992,14.3344538 C4.10756303,14.1663866 4.13781513,13.9781513 4.24537815,13.8369748 C4.35294118,13.6957983 4.53109244,13.6184874 4.7092437,13.6453782 C8.84369748,14.189916 10.9613445,11.9882353 10.9815126,11.9680672 C11.1058824,11.8403361 11.2907563,11.7865546 11.4655462,11.8268908 L11.4655462,11.8268908 Z M3.92268908,11.1142857 C4.08067227,11.1142857 4.25210084,11.1042017 4.42016807,11.0840336 C4.97142857,11.0201681 5.48907563,10.8319328 5.48907563,10.8319328 C5.48907563,10.8319328 5.85546218,10.6369748 5.52941176,10.3647059 C5.52941176,10.3647059 5.18655462,9.96806723 4.61176471,9.96806723 C4.2789916,9.96806723 3.87226891,10.0991597 3.40840336,10.5193277 C2.91764706,10.9630252 3.33781513,11.1142857 3.92268908,11.1142857 Z M5.83865546,11.7831933 C5.77478992,11.8067227 5.18655462,12.0184874 4.53445378,12.092437 C4.32268908,12.1159664 4.11764706,12.1294118 3.92605042,12.1294118 C3.03865546,12.1294118 2.48067227,11.8403361 2.26218487,11.2689076 C2.17142857,11.0302521 2.03361345,10.4016807 2.7394958,9.76302521 C3.33445378,9.22857143 3.96638655,8.95630252 4.61848739,8.95630252 C5.33781513,8.95630252 5.92605042,9.31260504 6.24201681,9.64201681 C6.55798319,9.93781513 6.71596639,10.3277311 6.67226891,10.7210084 C6.61848739,11.2184874 6.26890756,11.5680672 5.96302521,11.7294118 C5.91932773,11.7495798 5.8789916,11.7663866 5.83865546,11.7831933 L5.83865546,11.7831933 Z M8.22857143,9.32268908 C7.98991597,9.74285714 8.14789916,9.89411765 8.4605042,9.89411765 C8.71596639,9.89411765 9.0789916,9.79327731 9.41848739,9.65882353 C9.94285714,9.45042017 10.389916,9.11092437 10.389916,9.11092437 C10.389916,9.11092437 10.6890756,8.81176471 10.2722689,8.60336134 C10.2722689,8.60336134 9.95966387,8.38487395 9.53613445,8.38487395 C9.14285714,8.38487395 8.6487395,8.57983193 8.22857143,9.32268908 L8.22857143,9.32268908 Z M8.4605042,10.9058824 C7.71428571,10.9058824 7.37815126,10.4689076 7.27058824,10.2806723 C7.09915966,9.98487395 6.97478992,9.4907563 7.35462185,8.82184874 C8.06722689,7.56134454 9.02857143,7.37310924 9.5394958,7.37310924 C10.1378151,7.37310924 10.594958,7.61512605 10.7798319,7.72605042 C11.307563,8.01176471 11.4487395,8.44201681 11.4857143,8.67731092 C11.5865546,9.28907563 11.2201681,9.71260504 11.102521,9.82689076 C11.0689076,9.8605042 11.0319328,9.8907563 10.994958,9.9210084 C10.9378151,9.96470588 10.4201681,10.3478992 9.79159664,10.6 C9.43865546,10.7378151 8.92436975,10.9058824 8.4605042,10.9058824 L8.4605042,10.9058824 Z M13.3243697,15.8403361 C15.2537815,15.9546218 16.5647059,16.7042017 17.3277311,17.3226891 C17.2067227,16.8117647 16.810084,16.2033613 15.707563,15.7798319 C14.5781513,15.3428571 13.8117647,15.5344538 13.3243697,15.8403361 L13.3243697,15.8403361 Z M21.0151261,16.0823529 C22.0806723,13.6352941 22.4537815,11.5008403 22.5815126,10.3445378 C20.9579832,11.0403361 18.8571429,10.8386555 17.6840336,10.3848739 C16.5310924,9.94117647 14.8369748,8.5697479 14.0941176,7.09411765 C13.8285714,7.48739496 13.492437,8.00840336 13.1428571,8.6 C13.1327731,8.61680672 13.1159664,8.62689076 13.102521,8.64369748 C13.2268908,9.04705882 13.3411765,9.47394958 13.4487395,9.91764706 C13.5630252,9.88739496 13.6739496,9.85378151 13.8184874,9.84369748 C13.9226891,9.83697479 14.0201681,9.8302521 14.1176471,9.8302521 C15.9495798,9.8302521 16.6117647,11.0806723 16.7193277,11.810084 C16.8302521,12.3310924 16.6352941,12.6941176 16.5042017,12.8655462 C16.2722689,13.1714286 15.8991597,13.3462185 15.4857143,13.3462185 C15.3478992,13.3462185 15.2504202,13.3294118 15.2504202,13.3294118 C15.2168067,13.3226891 15.1630252,13.3092437 15.1327731,13.302521 C15.0655462,13.2823529 14.4672269,13.097479 13.892437,12.7714286 C13.8857143,12.7680672 13.8857143,12.7613445 13.8789916,12.7579832 C13.8991597,13.4672269 13.8285714,14.0789916 13.6773109,14.6134454 C14.3260504,14.4521008 15.1193277,14.4722689 16.0672269,14.8352941 C17.102521,15.2319328 17.8016807,15.8302521 18.1445378,16.6134454 C18.594958,17.6453782 18.2285714,18.6033613 18.2151261,18.6436975 C18.1478992,18.8184874 17.989916,18.9361345 17.8084034,18.9596639 C17.7882353,18.9630252 17.7680672,18.9630252 17.7478992,18.9630252 C17.5865546,18.9630252 17.4319328,18.8857143 17.3378151,18.7512605 C17.2773109,18.6638655 15.7411765,16.6 12.2117647,16.8621849 C12.1848739,16.8655462 12.1613445,16.8487395 12.1344538,16.8453782 C11.9966387,16.9495798 11.8521008,17.0436975 11.697479,17.1378151 C12.2352941,17.9478992 13.0957983,18.589916 14.3663866,19.0773109 C17.4689076,20.2705882 19.2537815,20.1226891 21.0151261,16.0823529 L21.0151261,16.0823529 Z M8.78991597,17.2218487 C12.1647059,16.2773109 13.589916,15.0268908 12.5546218,10.4890756 C11.9193277,7.70588235 10.8806723,5.64537815 10.2722689,4.60336134 C9.53613445,5.89747899 8.21512605,6.90252101 6.38991597,7.54117647 C5.40504202,7.88739496 3.2,8.00840336 1.05882353,7.0605042 C1.1092437,8.44537815 1.30756303,11.2857143 2.09411765,13.3966387 C3.42857143,16.9630252 5.49243697,18.1394958 8.78991597,17.2218487 L8.78991597,17.2218487 Z M13.6638655,10.892437 C13.7008403,11.0806723 13.7310924,11.2655462 13.7579832,11.4436975 C13.9294118,11.594958 14.1546218,11.7495798 14.3966387,11.887395 C14.887395,12.1663866 15.4252101,12.3310924 15.4252101,12.3310924 C15.4252101,12.3310924 15.4521008,12.3344538 15.492437,12.3344538 C15.6067227,12.3344538 15.8117647,12.297479 15.7344538,11.994958 C15.7344538,11.994958 15.6201681,10.8453782 14.1243697,10.8453782 C14.0537815,10.8453782 13.9764706,10.8487395 13.8991597,10.8554622 C13.794958,10.8588235 13.7243697,10.8756303 13.6638655,10.892437 L13.6638655,10.892437 Z M23.3781513,8.97983193 C23.5495798,9.06722689 23.6571429,9.24201681 23.6571429,9.43697479 C23.6571429,9.56470588 23.6201681,12.6268908 21.9361345,16.4890756 C20.5680672,19.6319328 19.0420168,20.7478992 17.1495798,20.7478992 C16.2016807,20.7478992 15.1630252,20.4689076 14.0067227,20.0218487 C12.4840336,19.4369748 11.4420168,18.6336134 10.7932773,17.594958 C10.2689076,17.8201681 9.69411765,18.0184874 9.05882353,18.1966387 C8.25882353,18.4218487 7.5092437,18.5327731 6.81344538,18.5327731 C4.20840336,18.5327731 2.34621849,16.9529412 1.14957983,13.7495798 C0.00672268908,10.6907563 0.0302152998,6.40504202 0.0302152998,6.22352941 C0.0336134454,6.04201681 0.127731092,5.87731092 0.282352941,5.78655462 C0.43697479,5.69915966 0.628571429,5.69915966 0.786554622,5.78655462 C2.93445378,7.02689076 5.26386555,6.85546218 6.05378151,6.57983193 C7.39495798,6.11260504 9.11932773,5.17478992 9.71428571,3.37647059 C9.77142857,3.19831933 9.92941176,3.06722689 10.1142857,3.03697479 C10.2991597,3.00336134 10.487395,3.08403361 10.5983193,3.23865546 C10.6588235,3.31932773 11.7378151,4.82184874 12.6857143,7.40336134 C13.3142857,6.40168067 13.8151261,5.72605042 13.8420168,5.69243697 C13.9630252,5.52773109 14.1680672,5.4605042 14.3663866,5.50420168 C14.5613445,5.55462185 14.712605,5.71932773 14.7428571,5.91764706 C14.9512605,7.28235294 16.887395,8.99327731 18.0403361,9.43697479 C19.2336134,9.89411765 21.5663866,10.0084034 22.8436975,9.0302521 C23.0016807,8.91260504 23.2067227,8.89579832 23.3781513,8.97983193 L23.3781513,8.97983193 Z M20.1546218,13.302521 C20.1546218,13.302521 19.8890756,12.6840336 19.0756303,12.6840336 C18.8705882,12.6840336 18.6319328,12.7210084 18.3529412,12.8184874 C17.6638655,13.0605042 18.3394958,13.3630252 19.0218487,13.5210084 C19.4991597,13.6285714 19.9831933,13.6352941 19.9831933,13.6352941 C19.9831933,13.6352941 20.3428571,13.5983193 20.1546218,13.302521 Z M18.0201681,11.8638655 C18.3865546,11.7361345 18.7394958,11.6722689 19.0722689,11.6722689 C20.1747899,11.6722689 20.810084,12.3613445 21.0420168,12.8218487 C21.2504202,13.1882353 21.2739496,13.5983193 21.102521,13.9546218 C20.9210084,14.3378151 20.5411765,14.5932773 20.087395,14.6436975 C20.0504202,14.6470588 20.0168067,14.6504202 19.9798319,14.6504202 L19.9697479,14.6504202 C19.9092437,14.6504202 19.3579832,14.6403361 18.7932773,14.5092437 C18.3327731,14.4016807 17.1092437,14.1226891 17.0554622,13.107563 C17.0453782,12.8957983 17.0823529,12.189916 18.0201681,11.8638655 L18.0201681,11.8638655 Z" id="Teatro-_1Light"></path>
        </g>
    </g>
</svg>

<svg width="24" height="24" viewBox="0 0 24 24" xmlns="http://www.w3.org/2000/svg"><path d="M10.672 13.716c.064-.111.108-.222.145-.33-.948.626-2.625 1.446-5.056 1.359.525.396 1.429.712 2.888.305 1.008-.282 1.69-.732 2.023-1.334zm.794-1.89a.513.513 0 01.366.35c.013.04.286 1.016-.28 2.03-.47.848-1.357 1.46-2.634 1.816a5.776 5.776 0 01-1.55.232c-2.407 0-3.183-1.896-3.193-1.92a.51.51 0 01.07-.497.495.495 0 01.464-.192c4.135.545 6.252-1.657 6.273-1.677a.516.516 0 01.484-.141zm-7.543-.712c.158 0 .33-.01.497-.03.551-.064 1.07-.252 1.07-.252s.365-.195.04-.467c0 0-.343-.397-.918-.397-.333 0-.74.131-1.204.551-.49.444-.07.595.515.595zm1.916.67a6.193 6.193 0 01-1.305.308 5.563 5.563 0 01-.608.037c-.887 0-1.445-.289-1.664-.86-.09-.239-.228-.867.477-1.506.595-.534 1.227-.807 1.88-.807.719 0 1.307.357 1.623.686.316.296.474.686.43 1.079-.054.497-.403.847-.709 1.008l-.124.054zm2.39-2.461c-.24.42-.081.571.232.571.255 0 .618-.1.957-.235.525-.209.972-.548.972-.548s.3-.3-.118-.508c0 0-.312-.218-.736-.218-.393 0-.887.195-1.307.938zm.232 1.583c-.747 0-1.083-.437-1.19-.625-.172-.296-.296-.79.084-1.46.712-1.26 1.674-1.448 2.184-1.448.599 0 1.056.242 1.24.353.529.286.67.716.707.951.1.612-.266 1.036-.383 1.15-.034.034-.071.064-.108.094a5.751 5.751 0 01-1.203.679c-.353.138-.868.306-1.331.306zm4.863 4.934c1.93.115 3.24.864 4.004 1.483-.121-.511-.518-1.12-1.62-1.543-1.13-.437-1.896-.246-2.384.06zm7.691.242c1.066-2.447 1.439-4.581 1.567-5.737-1.624.695-3.725.494-4.898.04-1.153-.444-2.847-1.815-3.59-3.29-.265.392-.602.913-.951 1.505-.01.017-.027.027-.04.044.124.403.238.83.346 1.274.114-.03.225-.064.37-.074.104-.007.201-.014.299-.014 1.832 0 2.494 1.25 2.601 1.98a1.27 1.27 0 01-.215 1.056 1.26 1.26 0 01-1.018.48c-.138 0-.236-.017-.236-.017-.033-.006-.087-.02-.117-.026a6.68 6.68 0 01-1.24-.532c-.007-.003-.007-.01-.014-.013.02.71-.05 1.321-.202 1.855.65-.16 1.442-.14 2.39.222 1.036.397 1.735.995 2.078 1.778.45 1.032.084 1.99.07 2.03a.502.502 0 01-.407.317c-.02.003-.04.003-.06.003a.5.5 0 01-.41-.212c-.06-.087-1.597-2.151-5.126-1.889-.027.004-.05-.013-.078-.017a5.2 5.2 0 01-.437.293c.538.81 1.399 1.452 2.67 1.94 3.102 1.193 4.887 1.045 6.648-2.996zM8.79 17.222c3.375-.945 4.8-2.195 3.765-6.733-.636-2.783-1.674-4.844-2.283-5.886-.736 1.294-2.057 2.3-3.882 2.938-.985.346-3.19.467-5.331-.48.05 1.384.249 4.225 1.035 6.336 1.335 3.566 3.398 4.742 6.696 3.825zm4.874-6.33c.037.189.067.374.094.552.171.151.397.306.639.443a5.83 5.83 0 001.028.444.6.6 0 00.067.003c.115 0 .32-.037.242-.339 0 0-.114-1.15-1.61-1.15-.07 0-.148.004-.225.01a.93.93 0 00-.235.037zm9.714-1.912a.51.51 0 01.28.457c0 .128-.038 3.19-1.722 7.052-1.368 3.143-2.894 4.259-4.786 4.259-.948 0-1.987-.28-3.143-.726-1.523-.585-2.565-1.388-3.214-2.427-.524.225-1.099.423-1.734.602-.8.225-1.55.336-2.246.336-2.605 0-4.467-1.58-5.663-4.783C.007 10.69.03 6.405.03 6.224a.514.514 0 01.252-.437.518.518 0 01.505 0c2.147 1.24 4.477 1.068 5.267.793 1.341-.467 3.065-1.405 3.66-3.204a.506.506 0 01.4-.339.491.491 0 01.484.202c.06.08 1.14 1.583 2.088 4.164a27.06 27.06 0 011.156-1.71.507.507 0 01.524-.189c.195.05.347.215.377.414.208 1.364 2.144 3.075 3.297 3.519 1.194.457 3.526.571 4.804-.407a.513.513 0 01.534-.05zm-3.223 4.323s-.266-.619-1.08-.619c-.204 0-.443.037-.722.134-.69.243-.014.545.669.703.477.108.961.114.961.114s.36-.037.172-.332zm-2.135-1.44c.367-.127.72-.19 1.052-.19 1.103 0 1.738.688 1.97 1.149.208.366.232.776.06 1.133-.181.383-.56.638-1.015.689-.037.003-.07.006-.107.006h-.01c-.06 0-.612-.01-1.177-.14-.46-.108-1.684-.387-1.738-1.402-.01-.212.027-.918.965-1.244z" fill="#5CB615" fill-rule="nonzero"/></svg>
